X:1863
T:Bourre
R:Bourre  3 temps
C:trad
A:Morvan
O:France
Z:S. Piron
M:3/4
L:1/4
Q:1/4=190
K:C
e/2f/2|g/2a/2g/2f/2e/2f/2|g2 d/2e/2|f g/2f/2e/2d/2|ece/2f/2|
g/2a/2g/2f/2e/2f/2|g2 d/2e/2|f g/2f/2e/2d/2|c2|
|:G|e3/2f/2e/2d/2|c2G|f3/2g/2f/2e/2|d2G|e3/2f/2e/2d/2|c2c|B/2c/2dB|c2:||
